gtk/icons/scalable/actions/edit-copy-symbolic.svg

<svg width='16' height='16'
     xmlns:gpa='https://www.gtk.org/grappa'
     gpa:version='1'
     gpa:keywords='edit copy clipboard'
     gpa:state='0'>
  <path d='M 3 10 C 1.89543045 10, 1 9.10456944, 1 8 L 1 3 C 1 1.89543045, 1.89543045 1, 3 1 L 8 1 C 9.10456944 1, 10 1.89543045, 10 3 M 6 8 L 6 13 C 6 14.1045694, 6.89543056 15, 8 15 L 13 15 C 14.1045694 15, 15 14.1045694, 15 13 L 15 8 C 15 6.89543056, 14.1045694 6, 13 6 L 8 6 C 6.89543056 6, 6 6.89543056, 6 8 Z'
        id='path0'
        stroke-width='2'
        stroke-linecap='round'
        stroke-linejoin='round'
        stroke='rgb(0,0,0)'
        fill='none'
        class='foreground-stroke transparent-fill'/>
</svg>

<svg xmlns="http://www.w3.org/2000/svg" width="16" height="16" viewBox="0 0 16 16"><path d="M3 10a2 2 45 0 1-2-2V3a2 2 135 0 1 2-2h5a2 2 45 0 1 2 2M6 8v5a2 2 45 0 0 2 2h5a2 2 135 0 0 2-2V8a2 2 45 0 0-2-2H8a2 2 135 0 0-2 2Z" class="foreground-stroke transparent-fill" style="fill:none;stroke:#241f31;stroke-width:2;stroke-linecap:round;paint-order:stroke markers fill"/></svg>
